X:1
T:The Hen And Her Clutch
M:4/4
R:Reel
K:ADor
|:A3B AGED|Eeef gedc|BdAc BE (3EDE|G3A BcdB|
A3B AGED|Eeef gedc|BdAc BE (3EDE|G3A BcdB:||
|:eg (3ggg a2bg|egga gedg|eg (3ggg a2ga|bgef gedg|
eg (3ggg a2ga|bgef gedB|eg (3ggg agbg|agbg agfg:||
